X: 1
T: Humours Of Whiskey
M: 9/8
L: 1/8
R: slip jig
K: Gmaj
G3 BdB cBA | G3 BGB AFD | G3 BGB ABc | dcB ABG FED :|
B/2c/2BA BGE E3 | B/2c/2BA BGE FGA | B/2c/2BA BGF EFG | A3 ABG FED :|
